X: 22162
T: L'Angliru
R: jig
M: 6/8
K: Dmixolydian
|:GAB cAG|FGA DEF|GAB cAG|1 A~d2 cAF:|2 A~d2 cAG||
|:A~d2 cAG|A~d2 EFG|A~d2 cAG|AGF GFD:|
|:~G3 GDE|~G3 GAB|cBA BAG|ABA FED|
~G3 GDE|~G3 GAB|cBA BAG|ABA ~G3:|
|:AFA d2A|FAF c2A|EGE ~A3|EFG ~A3|
AFA d2A|FAF c2A|EGE ~A3|DEF ~G3:|
|:cBc ~E3|BcB AFD|cBc ~E3|EFG ~A3|
cBc ~E3|BcB AFD|cBc ~E3|1 EFG ~A3:|
[2[M:3/8]EFG|[M:6/8]A6|B6|A6-|A6||

